icon-svg/lift-in-window-open2.svg

<svg xmlns="http://www.w3.org/2000/svg" fill="#44739e" viewBox="0 0 24 24"><path d="M17.811 20.613v-.337L5.662 14.613 5.484 4.016l-.214-.092.217 10.865ZM4.736 15.132l13.926 6.551.081-15.041-14.209-3.73Zm13.4-8.009-.074 13.761-9.722-4.575V16.3h-.006l-3.01-1.41-.186-11.179Zm-3.651 8.127c1.022 0 2.046-.005 3.06 0-.998-.025-2.04-.003-3.06 0m-5.352-.128c2.717 0 5.453-.015 8.169-.006a.94.94 0 0 0 .243-.006v-.428c-3.644-.007-7.26.006-10.912.013v.026c.281.129.565.261.846.4.547-.009 1.111.027 1.654.001m-1.365.156c.16.068.3.156.451.236.04.021.08.045.12.063.541.012 1.111-.014 1.66 0 2.508 0 5.024 0 7.533-.007v-.253h.013v-.064c-1.014-.008-2.038 0-3.06 0-2.242 0-4.49.011-6.717.006zm11.57-7.223v.017-.01Zm.599-5.571v-.009c-5.172-.021-10.345-.01-15.512-.046a1.73 1.73 0 0 0-.374.007c.065 4.368.139 8.744.2 13.1l.007.019c.3-.007.631-.006.945-.006v-.022c-.187-.085-.393-.2-.584-.277-.047-4.164-.128-8.317-.177-12.483a4.18 4.18 0 0 1 1.286.258c.739.178 1.5.37 2.224.577 3.686.936 7.373 1.913 11.057 2.861l-.2 15.216h.02a2.14 2.14 0 0 0 .157-.369c.13-.145.042-.339.072-.513.011-.686.034-1.388.026-2.068.025-.747.028-1.523.032-2.282.027-1.086.046-2.186.046-3.281.016-.518.04-1.057.021-1.576.032-.05.009-.189.006-.252a.67.67 0 0 0 0-.267c.028-.406.019-.854.019-1.27.024-.652.032-1.306.026-1.97.025-.548.022-1.108.027-1.667-1.306-.32-2.609-.68-3.95-1-.534-.153-1.116-.288-1.666-.442l-.021.006c-2.48-.64-4.968-1.281-7.447-1.9a.67.67 0 0 0-.2-.058c4.384-.032 8.8.022 13.188 0-.011.4-.029.805-.019 1.207-.043.591-.016 1.241-.046 1.834V5.9a1.4 1.4 0 0 0 .252.068l.017-3.216v-.016l.214.006v.028h-.058l-.14 12.471h.049v.173h-.129v-.175l.014-2.621v-.844l.019-3.7a1.83 1.83 0 0 0-.007.444 7.2 7.2 0 0 0-.013.907c-.034.6-.032 1.244-.033 1.854a.7.7 0 0 0 0 .234c-.051 1.334-.039 2.7-.066 4.057h.513c.032-.566 0-1.164.04-1.721.041-3.7.131-7.395.184-11.091a1.18 1.18 0 0 0-.019-.274m-.599 4.478c.009.361-.024.735 0 1.093l.008-1.581c0 .171 0 .34-.008.488m.526-4.617h.006a2.7 2.7 0 0 0-.171-.291C14.575 2.054 9.461 2 4.338 2a2.2 2.2 0 0 0-.2.307c5.143 0 10.263.048 15.4.038a1.2 1.2 0 0 0 .326 0"/></svg>

<svg xmlns="http://www.w3.org/2000/svg" fill="#44739e" width="24" height="24" version="1.1" viewBox="0 0 24 24"><path d="M 17.811,20.613 V 20.276 L 5.662,14.613 5.484,4.016 5.27,3.924 5.487,14.789 Z M 4.736,15.132 18.662,21.683 18.743,6.642 4.534,2.912 Z M 18.136,7.123 18.062,20.884 8.34,16.309 V 16.3 H 8.334 L 5.324,14.89 5.138,3.711 Z m -3.651,8.127 c 1.022,0 2.046,-0.005 3.06,0 -0.998,-0.025 -2.04,-0.003 -3.06,0 z M 9.133,15.122 c 2.717,0 5.453,-0.015 8.169,-0.006 a 0.941,0.941 0 0 0 0.243,-0.006 v -0.428 c -3.644,-0.007 -7.26,0.006 -10.912,0.013 v 0.026 c 0.281,0.129 0.565,0.261 0.846,0.4 0.547,-0.009 1.111,0.027 1.654,10e-4 z m -1.365,0.156 c 0.16,0.068 0.3,0.156 0.451,0.236 0.04,0.021 0.08,0.045 0.12,0.063 0.541,0.012 1.111,-0.014 1.66,0 2.508,0 5.024,0 7.533,-0.007 v -0.253 h 0.013 v -0.064 c -1.014,-0.008 -2.038,0 -3.06,0 -2.242,0 -4.49,0.011 -6.717,0.006 z M 19.338,8.055 V 8.072 8.062 Z M 19.937,2.484 V 2.475 C 14.765,2.454 9.592,2.465 4.425,2.429 A 1.732,1.732 0 0 0 4.051,2.436 c 0.065,4.368 0.139,8.744 0.2,13.1 l 0.007,0.019 c 0.3,-0.007 0.631,-0.006 0.945,-0.006 V 15.527 C 5.016,15.442 4.81,15.327 4.619,15.25 4.572,11.086 4.491,6.933 4.442,2.767 a 4.185,4.185 0 0 1 1.286,0.258 c 0.739,0.178 1.5,0.37 2.224,0.577 3.686,0.936 7.373,1.913 11.057,2.861 q -0.1,7.607 -0.2,15.216 h 0.02 a 2.142,2.142 0 0 0 0.157,-0.369 c 0.13,-0.145 0.042,-0.339 0.072,-0.513 0.011,-0.686 0.034,-1.388 0.026,-2.068 0.025,-0.747 0.028,-1.523 0.032,-2.282 0.027,-1.086 0.046,-2.186 0.046,-3.281 0.016,-0.518 0.04,-1.057 0.021,-1.576 0.032,-0.05 0.009,-0.189 0.006,-0.252 a 0.667,0.667 0 0 0 0,-0.267 c 0.028,-0.406 0.019,-0.854 0.019,-1.27 0.024,-0.652 0.032,-1.306 0.026,-1.97 0.025,-0.548 0.022,-1.108 0.027,-1.667 -1.306,-0.32 -2.609,-0.68 -3.95,-1 C 14.777,5.011 14.195,4.876 13.645,4.722 L 13.624,4.728 C 11.144,4.088 8.656,3.447 6.177,2.828 A 0.666,0.666 0 0 0 5.977,2.77 c 4.384,-0.032 8.8,0.022 13.188,0 -0.011,0.4 -0.029,0.805 -0.019,1.207 C 19.103,4.568 19.13,5.218 19.1,5.811 V 5.9 a 1.38,1.38 0 0 0 0.252,0.068 L 19.369,2.752 V 2.736 l 0.214,0.006 V 2.77 h -0.058 l -0.14,12.471 h 0.049 v 0.173 h -0.129 v -0.175 l 0.014,-2.621 v -0.844 l 0.019,-3.7 a 1.832,1.832 0 0 0 -0.007,0.444 7.226,7.226 0 0 0 -0.013,0.907 c -0.034,0.6 -0.032,1.244 -0.033,1.854 a 0.707,0.707 0 0 0 0,0.234 c -0.051,1.334 -0.039,2.7 -0.066,4.057 h 0.513 c 0.032,-0.566 0,-1.164 0.04,-1.721 0.041,-3.7 0.131,-7.395 0.184,-11.091 A 1.183,1.183 0 0 0 19.937,2.484 Z m -0.599,4.478 c 0.009,0.361 -0.024,0.735 0,1.093 l 0.008,-1.581 c 0,0.171 0,0.34 -0.008,0.488 z M 19.864,2.345 H 19.87 A 2.736,2.736 0 0 0 19.699,2.054 C 14.575,2.054 9.461,2 4.338,2 a 2.214,2.214 0 0 0 -0.2,0.307 c 5.143,0 10.263,0.048 15.4,0.038 a 1.186,1.186 0 0 0 0.326,0 z"/></svg>
